packages/core/src/svgs/tokens/mono/EDEN.svg

<svg width="24" height="24" viewBox="0 0 24 24" fill="none" xmlns="http://www.w3.org/2000/svg">
<path fill-rule="evenodd" clip-rule="evenodd" d="M17.2001 9.36668L13.1112 5.41668V13.3222L17.2001 9.36668ZM8.82228 17.7389L10.889 15.7389V15.6611L6.48894 11.4111V15.489L8.82228 17.7389ZM10.0334 18.9112L10.889 18.0834V22H13.1112V18.1111L14.8335 19.7778V19.7667L15.1667 20.0889L19.2056 16.1834H19.2223V8.94446H19.189L13.2111 3.16667L12 2L4.81117 8.94446H4.77783V16.1834H4.7945L7.61118 18.9112L8.81673 20.0833H8.82784L10.039 18.9166L10.0334 18.9112ZM13.1112 15.7778L15.1667 17.7611L17.5557 15.4445V11.3667L13.1112 15.6611V15.7778ZM6.80006 9.36668L10.889 13.3222V5.41668L6.80006 9.36668Z" fill="white"/>
</svg>

<svg xmlns="http://www.w3.org/2000/svg" width="24" height="24" fill="none" viewBox="0 0 24 24">
    <path fill="#fff" fill-rule="evenodd" d="m17.2 9.367-4.089-3.95v7.905zm-8.378 8.372 2.067-2v-.078l-4.4-4.25v4.078zm1.211 1.172.856-.828V22h2.222v-3.889l1.723 1.667v-.011l.333.322 4.039-3.906h.016V8.944h-.033l-5.978-5.777L12 2 4.811 8.944h-.033v7.24h.017L7.61 18.91l1.206 1.172h.01l1.212-1.166zm3.078-3.133 2.056 1.983 2.389-2.316v-4.078L13.11 15.66zm-6.31-6.411 4.088 3.955V5.417z" clip-rule="evenodd"/>
</svg>
